X:1
T: The Scotch Hero's Reel
C:
R:Jig
Q:180
K:G
M:6/8
L:1/16
c2|:Bcd2c2 B2G2B2|c2A2c2 B2G2c2|Bcd2c2 B2G2B2|A2F2G2 A2B2c2|
Bcd2c2 B2G2B2|c2A2c2 B2G2B2|g2f2e2 d2c2B2|A2F2G2 A2B2c2|
B3AG2 G2D2G2|B2G2B2 g2d2c2|B3AG2 G2D2G2|A2F2G2 A2B2c2|
B3AG2 G2D2G2|B2G2B2 g2d2B2|e2f2g2 d2c2B2|1A2F2G2 A2B2c2:|2A3BA2 G4||
